X: 1
T: JOE KENNEDY'S -- JIG
B: Ryan's Mammoth Collection of Fiddle Tunes
R: jig
M: 6/8
L: 1/8
Z: Contributed 20000926204126 by John Chambers John.Chambers:weema.com
K: Em
uB \
| vBEE BEE | BAG FEF | DED FDF | AB^c dfd \
| BEE def | gfe fdB | AFA AdF | FEE E2 :|
|: ue \
| (ve/f/g).e fed | (ue/f/g).e fed | (d/e/f).e dAF | DFA def \
| edB def | gbg edB | AFA AdF | FEE E2 :|
